X: 1
T: Princess Royal, The
M: 4/4
L: 1/8
R: barndance
K: Ador
|:ed | c2 Bc A2 e=f | edcB A2 (3efg | f2 d^c defd | edcB c2 BA |
B2 g2 B2 AG | ABAG E2 ed | c2 (3ABc BAGVB | (3ABA GB A2 :|
|:cd | eaag a3 b | aged e2 ^cd | (3efg fa gfge |  dcBA G2 AB |
c2 Bc d2 ^cd | ef (3gfe  a2 ag | f2 A2 f2 gf | e^c (3ABc d2 ed |
c2 Bc ABcd | e2 E2 E2 ed | c2 (3ABc BAGB | (3ABA GB A2 :|
